!!!COM: Music21
!!!OTL: Marcha de Corvera
!!!OMV: pezas_marchas_marcha-de-corvera_marcha-de-corvera-partitura.musicxml
**kern
*I"Bagpipes
*I'Bag
*clefG^2
*k[]
*M6/8
=1
!LO:TX:a:t=Andante
*MM100
!LO:TX:a:t=[quarter]=100
4.r
8ccL
8dd
8eeJ
=||
8ffL
8ggM
8ffJ
8eeL
8ff
8ddJ
=
4.ggT
8bL
8cc
8ddJ
=
8ggL
8aa
8ggJ
8ffL
8gg
8ffJ
=
4.ccT
8ccL
8dd
8eeJ
=
8ffL
8ggM
8ffJ
8eeL
8ff
8ddJ
=
4.eet
8bL
8cc
8ddJ
=
8eeL
8ff
8eeJ
8bL
8ee
8eeJ
!!linebreak:original
=
8bL
8ff
8ffJ
8bL
8ee
8eeJ
=
8bL
8dd
8ddJ
[4.ccT
=
4.cc]
8ccL
8dd
8eeJ
=||
8ffL
8ggM
8ffJ
8eeL
8ff
8ddJ
=
4.ggT
8bL
8cc
8ddJ
=
8ggL
8aa
8ggJ
8ffL
8gg
8ffJ
=
4.ccT
8ccL
8dd
8eeJ
=
8ffL
8ggM
8ffJ
8eeL
8ff
8ddJ
!!linebreak:original
=
4.eet
8bL
8cc
8ddJ
=
8eeL
8ff
8eeJ
8bL
8ee
8eeJ
!!linebreak:original
=
8bL
8ff
8ffJ
8bL
8ee
8eeJ
=
8bL
8dd
8ddJ
[4.ccT
=
4.cc]
8ccL
8dd
8eeJ
=||
8ffL
8ccc
8ffJ
8cccL
8ff
8cccJ
=
8eeL
8ff
8eeJ
8cccL
8ee
8cccJ
=
8ddL
8ee
8ddJ
8bL
8cc
8ddJ
!!linebreak:original
=
4.eet
8ccL
8dd
8eeJ
=
8ffL
8ccc
8ffJ
8cccL
8ff
8cccJ
=
8eeL
8ff
8eeJ
8cccL
8ee
8cccJ
=
8ddL
8ee
8ddJ
8cccL
8dd
8ggJ
=
4.ccT
8ccL
8dd
8eeJ
=||
8ffL
8ccc
8ffJ
8cccL
8ff
8cccJ
=
8eeL
8ff
8eeJ
8cccL
8ee
8cccJ
=
8ddL
8ee
8ddJ
8bL
8cc
8ddJ
!!linebreak:original
=
4.eet
8ccL
8dd
8eeJ
=
8ffL
8ccc
8ffJ
8cccL
8ff
8cccJ
=
8eeL
8ff
8eeJ
8cccL
8ee
8cccJ
=
8ddL
8ee
8ddJ
8cccL
8dd
8ggJ
=
4.ccT
8ccL
8dd
8eeJ
=||
8ffL
8ff
8ffJ
8ddL
8ee
8ffJ
=
8eeL
8ee
8eeJ
8ccL
8dd
8eeJ
!!linebreak:original
=
8ffL
8ff
8ffJ
8ddL
8ee
8ffJ
=
8ggL
8gg
8ggJ
8ccL
8dd
8eeJ
=
8ffL
8ff
8ffJ
8ddL
8ee
8ffJ
=
8eeL
8ee
8eeJ
8ccL
8dd
8eeJ
=
8ggL
8aaT
8ggJ
8ffL
8ee
8ddJ
=
8ccL
8cc
8ccJ
8ccL
8dd
8eeJ
=||
8ffL
8ff
8ffJ
8ddL
8ee
8ffJ
!!linebreak:original
=
8eeL
8ee
8eeJ
8ccL
8dd
8eeJ
!!linebreak:original
=
8ffL
8ff
8ffJ
8ddL
8ee
8ffJ
=
8ggL
8gg
8ggJ
8ccL
8dd
8eeJ
=
8ffL
8ff
8ffJ
8ddL
8ee
8ffJ
=
8eeL
8ee
8eeJ
8ccL
8dd
8eeJ
=
8ggL
8aaT
8ggJ
8ffL
8ee
8ddJ
=
2.ddT
==
*-
